picto/escalator-up-left-framed.svg

<svg class="color-immutable" width="30" height="30" viewBox="0 0 30 30" fill="none" xmlns="http://www.w3.org/2000/svg"><path d="M29.9999 0H0V29.9999H29.9999V0Z" fill="#2D327D"/><path d="M25.4999 2.99999C26.3249 2.99999 26.9999 3.67499 26.9999 4.49999V25.4999C26.9999 26.3249 26.3249 26.9999 25.4999 26.9999H4.49999C3.67499 26.9999 2.99999 26.3249 2.99999 25.4999V4.49999C2.99999 3.67499 3.67499 2.99999 4.49999 2.99999H25.4999ZM25.4999 2.62499H4.49999C3.46612 2.62499 2.62499 3.46612 2.62499 4.49999V25.4999C2.62499 26.5338 3.46612 27.3749 4.49999 27.3749H25.4999C26.5338 27.3749 27.3749 26.5338 27.3749 25.4999V4.49999C27.3749 3.46612 26.5338 2.62499 25.4999 2.62499Z" fill="white"/><path d="M18.375 17.787V15.2967C18.375 14.6548 17.8542 14.1341 17.2125 14.1341C17.0373 14.1341 16.8643 14.1738 16.7066 14.25L14.5637 15.2857L15.6966 16.0293L17.1484 15.3276L17.2953 15.6314L16.0256 16.2451L18.375 17.787Z" fill="white"/><path d="M14.2501 15.0801V12.5896C14.2501 11.9479 13.7292 11.4272 13.0875 11.4272C12.9123 11.4272 12.7394 11.4669 12.5817 11.5431L10.4387 12.5787L11.5717 13.3224L13.0236 12.6206L13.1703 12.9245L11.9006 13.5383L14.2501 15.0801Z" fill="white"/><path d="M21.3751 23.9999C22.8242 23.9999 24.0002 22.8239 24.0002 21.3749C24.0002 19.9259 22.8242 18.7499 21.3751 18.7499H18.8116C18.5922 18.7499 18.3777 18.6859 18.1944 18.5654L5.99998 10.563V16.1249L18.0001 23.9999H21.3751Z" fill="white"/><path d="M10.1252 12.3731V9.88265C10.1252 9.24095 9.60432 8.72015 8.96255 8.72015C8.78735 8.72015 8.61447 8.75968 8.45675 8.83603L6.3137 9.87178L7.44673 10.6154L8.89857 9.91363L9.04535 10.2175L7.77568 10.8311L10.1252 12.3731Z" fill="white"/><path d="M9.94167 7.48836C9.94167 6.95016 9.50487 6.51336 8.96668 6.51336C8.42848 6.51336 7.99168 6.95016 7.99168 7.48836C7.99168 8.02655 8.42848 8.46335 8.96668 8.46335C9.50487 8.46335 9.94167 8.02655 9.94167 7.48836Z" fill="white"/><path d="M14.0662 10.1583C14.0662 9.62008 13.6294 9.18328 13.0912 9.18328C12.553 9.18328 12.1162 9.62008 12.1162 10.1583C12.1162 10.6965 12.553 11.1333 13.0912 11.1333C13.6294 11.1333 14.0662 10.6965 14.0662 10.1583Z" fill="white"/><path d="M18.1909 12.8281C18.1909 12.2901 17.7541 11.8531 17.2159 11.8531C16.6777 11.8531 16.2409 12.2901 16.2409 12.8281C16.2409 13.3663 16.6777 13.8031 17.2159 13.8031C17.7541 13.8031 18.1909 13.3663 18.1909 12.8281Z" fill="white"/></svg>

<svg class="color-immutable" width="30" height="30" viewBox="0 0 30 30" fill="none" xmlns="http://www.w3.org/2000/svg"><path d="M30 0H0v30h30V0Z" fill="#2D327D"/><path d="M25.5 3c.825 0 1.5.675 1.5 1.5v21c0 .825-.675 1.5-1.5 1.5h-21c-.825 0-1.5-.675-1.5-1.5v-21C3 3.675 3.675 3 4.5 3h21Zm0-.375h-21A1.877 1.877 0 0 0 2.625 4.5v21c0 1.034.841 1.875 1.875 1.875h21a1.877 1.877 0 0 0 1.875-1.875v-21A1.877 1.877 0 0 0 25.5 2.625Z" fill="#fff"/><path d="M18.375 17.787v-2.49a1.163 1.163 0 0 0-1.668-1.047l-2.143 1.036 1.133.743 1.451-.701.147.303-1.27.614 2.35 1.542ZM14.25 15.08v-2.49a1.163 1.163 0 0 0-1.668-1.047l-2.143 1.036 1.133.743 1.452-.701.146.303-1.27.614 2.35 1.542Z" fill="#fff"/><path d="M21.375 24a2.626 2.626 0 0 0 0-5.25h-2.563c-.22 0-.434-.064-.618-.185L6 10.563v5.562L18 24h3.375ZM10.125 12.373v-2.49a1.163 1.163 0 0 0-1.668-1.047L6.314 9.872l1.133.743 1.452-.701.146.303-1.27.614 2.35 1.542ZM9.942 7.488a.975.975 0 1 0-1.951.001.975.975 0 0 0 1.95 0ZM14.066 10.158a.975.975 0 1 0-1.95.001.975.975 0 0 0 1.95 0ZM18.19 12.828a.975.975 0 1 0-1.95.001.975.975 0 0 0 1.95 0Z" fill="#fff"/></svg>
